X: 3
T: The Boston Pilot
P: piffero primo a0828
O:
F: http://ancients.sudburymuster.org/mus/ssp/pdf/adamsyorkC0.pdf
Z: 2019 John Chambers <jc:trillian.mit.edu>
M: 6/8
L: 1/8
K: Bm
F |\
B2~B BAF | d2e (f<a)f | edB BAF | A3 A2F |\
B2~B BAF | d2e (f<a)f | ~fdB B2{cB}A | B3- B2 :|
|: F |\
a2f d2f | a2B/B/ b2a | ~fed ~edB | A3 F3 |\
{GFEF}B2~B BAF | d2e (f<a)f | ~fdB B2{cB}A | B3- B2 :|


